imagenes/iconos/svg/categorias.svg

<?xml version="1.0" encoding="UTF-8" standalone="no"?>
<svg width="44px" height="44px" viewBox="0 0 44 44" version="1.1" xmlns="http://www.w3.org/2000/svg" xmlns:xlink="http://www.w3.org/1999/xlink" xmlns:sketch="http://www.bohemiancoding.com/sketch/ns">
    <g id="Page-1" stroke="none" stroke-width="1" fill="none" fill-rule="evenodd" sketch:type="MSPage">
        <g id="Desktop-HD" sketch:type="MSArtboardGroup" transform="translate(-228.000000, -83.000000)">
            <g id="Header" sketch:type="MSLayerGroup">
                <rect id="Rectangle-2" fill="#F2F2F2" sketch:type="MSShapeGroup" x="0" y="48" width="1440" height="112"></rect>
                <g id="Icono-menu" transform="translate(87.000000, 66.000000)" sketch:type="MSShapeGroup">
                    <g id="arrow" transform="translate(127.000000, 1.000000)">
                        <g id="Oval-1-Copy-3-+-Fill-109" transform="translate(14.000000, 16.000000)">
                            <path d="M22,44 C34.1502645,44 44,34.1502645 44,22 C44,9.8497355 34.1502645,0 22,0 C9.8497355,0 0,9.8497355 0,22 C0,34.1502645 9.8497355,44 22,44 Z" id="Oval-1-Copy-3" fill="#FFFFFF"></path>
                            <path d="M22.4911379,32.729 C22.6801379,32.729 22.8711379,32.657 23.0181379,32.511 L31.7621379,23.853 C32.0571379,23.562 32.0591379,23.087 31.7671379,22.793 C31.4771379,22.499 31.0001379,22.496 30.7071379,22.788 L23.2331379,30.188 L23.2331379,12.75 C23.2331379,12.335 22.8971379,12 22.4831379,12 C22.0681379,12 21.7331379,12.335 21.7331379,12.75 L21.7331379,30.172 L14.2781379,22.788 C13.9851379,22.496 13.5101379,22.499 13.2171379,22.793 C12.9251379,23.087 12.9281379,23.562 13.2231379,23.853 L21.9621379,32.511 C22.1081379,32.657 22.3001379,32.729 22.4911379,32.729 Z" id="Fill-109" fill="#5B5B58"></path>
                        </g>
                    </g>
                </g>
            </g>
        </g>
    </g>
</svg>

<svg width="44" height="44" viewBox="0 0 44 44" xmlns="http://www.w3.org/2000/svg"><g fill="none" fill-rule="evenodd"><path fill="#F2F2F2" d="M-228-35h1440V77H-228z"/><path d="M22 44c12.15 0 22-9.85 22-22S34.15 0 22 0 0 9.85 0 22s9.85 22 22 22z" fill="#FFF"/><path d="M22.49 32.73c.19 0 .38-.073.528-.22l8.744-8.657c.295-.29.297-.766.005-1.06-.29-.294-.767-.297-1.06-.005l-7.474 7.4V12.75c0-.415-.336-.75-.75-.75-.415 0-.75.335-.75.75v17.422l-7.455-7.384c-.293-.292-.768-.29-1.06.005-.293.294-.29.77.005 1.06l8.74 8.658c.145.147.337.22.528.22z" fill="#5B5B58"/></g></svg>
